icons/ArrowDownRight_filled.svg

<svg width="24" height="24" viewBox="0 0 24 24" fill="none" xmlns="http://www.w3.org/2000/svg">
<path fill-rule="evenodd" clip-rule="evenodd" d="M19.8497,18.5998c0,0.6903 -0.5597,1.25 -1.25,1.25h-11.31375c-0.69036,0 -1.25,-0.5597 -1.25,-1.25c0,-0.6904 0.55964,-1.25 1.25,-1.25h8.29595l-11.06545,-11.06548c-0.48816,-0.48815 -0.48816,-1.27961 0,-1.76776c0.48815,-0.48816 1.27961,-0.48816 1.76776,0l11.06549,11.06544v-8.29594c0,-0.69036 0.5596,-1.25 1.25,-1.25c0.6903,0 1.25,0.55964 1.25,1.25z" fill="#002B51"/>
</svg>

<svg width="24" height="24" viewBox="0 0 24 24" fill="none" xmlns="http://www.w3.org/2000/svg">
<path fill-rule="evenodd" clip-rule="evenodd" d="M19.8497 18.5998C19.8497 19.2901 19.29 19.8498 18.5997 19.8498H7.28595C6.59559 19.8498 6.03595 19.2901 6.03595 18.5998C6.03595 17.9094 6.59559 17.3498 7.28595 17.3498H15.5819L4.51645 6.28432C4.02829 5.79617 4.02829 5.00471 4.51645 4.51656C5.0046 4.0284 5.79606 4.0284 6.28421 4.51656L17.3497 15.582V7.28606C17.3497 6.5957 17.9093 6.03606 18.5997 6.03606C19.29 6.03606 19.8497 6.5957 19.8497 7.28606V18.5998Z" fill="#002B51"/>
</svg>
